src/pos-icons/ip.svg

<svg height="24" viewBox="0 0 24 24" width="24" xmlns="http://www.w3.org/2000/svg"><path d="m16 11h-2v-2h2zm-13-6a2 2 0 0 1 2-2h14a2 2 0 0 1 2 2v14a2 2 0 0 1 -2 2h-14c-1.11 0-2-.9-2-2zm7 2h-2v10h2zm2 10h2v-4h2a2 2 0 0 0 2-2v-2a2 2 0 0 0 -2-2h-4z"/></svg>

<?xml version="1.0" encoding="UTF-8"?><!DOCTYPE svg PUBLIC "-//W3C//DTD SVG 1.1//EN" "http://www.w3.org/Graphics/SVG/1.1/DTD/svg11.dtd"><svg xmlns="http://www.w3.org/2000/svg" xmlns:xlink="http://www.w3.org/1999/xlink" version="1.1" id="mdi-ip" width="24" height="24" viewBox="0 0 24 24"><path d="M16,11H14V9H16V11M3,5A2,2 0 0,1 5,3H19A2,2 0 0,1 21,5V19A2,2 0 0,1 19,21H5C3.89,21 3,20.1 3,19V5M10,7H8V17H10V7M12,17H14V13H16A2,2 0 0,0 18,11V9A2,2 0 0,0 16,7H12V17Z" /></svg>
